map_marker_monochrome/openmoji_sushi.svg

<svg xmlns="http://www.w3.org/2000/svg" width="24" height="24" viewBox="0 0 24 24"> <g transform="scale(0.333333333)">  <g id="line">
    <path fill="none" stroke="#000000" stroke-linecap="round" stroke-linejoin="round" stroke-miterlimit="10" stroke-width="2" d="M6,46c0,0.415,0.126,0.7998,0.3428,1.1191C5.5635,47.3926,5,48.127,5,49c0,1.1045,0.8955,2,2,2 c0.1006,0,0.1963-0.0156,0.2939-0.0293C7.1113,51.2715,7,51.6221,7,52c0,1.1045,0.8955,2,2,2c0.415,0,0.7998-0.127,1.1201-0.3428 C10.3926,54.4375,11.127,55,12,55s1.6074-0.5625,1.8799-1.3428C14.2002,53.873,14.585,54,15,54s0.7998-0.127,1.1201-0.3428 C16.3926,54.4375,17.127,55,18,55s1.6074-0.5625,1.8799-1.3428C20.2002,53.873,20.585,54,21,54s0.7998-0.127,1.1201-0.3428 C22.3926,54.4375,23.127,55,24,55s1.6074-0.5625,1.8799-1.3428C26.2002,53.873,26.585,54,27,54s0.7998-0.127,1.1201-0.3428 C28.3926,54.4375,29.127,55,30,55s1.6074-0.5625,1.8799-1.3428C32.2002,53.873,32.585,54,33,54s0.7998-0.127,1.1201-0.3428 C34.3926,54.4375,35.127,55,36,55s1.6074-0.5625,1.8799-1.3428C38.2002,53.873,38.585,54,39,54s0.7998-0.127,1.1201-0.3428 C40.3926,54.4375,41.127,55,42,55s1.6074-0.5625,1.8799-1.3428C44.2002,53.873,44.585,54,45,54s0.7998-0.127,1.1201-0.3428 C46.3926,54.4375,47.127,55,48,55s1.6074-0.5625,1.8799-1.3428C50.2002,53.873,50.585,54,51,54s0.7998-0.127,1.1201-0.3428 C52.3926,54.4375,53.127,55,54,55s1.6074-0.5625,1.8799-1.3428C56.2002,53.873,56.585,54,57,54s0.7998-0.127,1.1201-0.3428 C58.3926,54.4375,59.127,55,60,55s1.6074-0.5625,1.8799-1.3428C62.2002,53.873,62.585,54,63,54c1.1045,0,2-0.8955,2-2 c0-0.3779-0.1113-0.7285-0.2939-1.0293C64.8037,50.9844,64.8994,51,65,51c1.1045,0,2-0.8955,2-2 c0-0.873-0.5635-1.6074-1.3428-1.8809C65.874,46.7998,66,46.415,66,46"/>
    <path fill="none" stroke="#000000" stroke-linecap="round" stroke-linejoin="round" stroke-miterlimit="10" stroke-width="2" d="M7,42c0,0,16-4,29-4s29,4,29,4v-6C48.9834,18.665,23.0176,18.668,7,36V42z"/>
  </g></g></svg>

<svg xmlns="http://www.w3.org/2000/svg" width="24" height="24" viewBox="0 0 24 24"> <g transform="translate(0.0 5.629591875) scale(0.375)">
  
  <g
     id="line"
     transform="translate(-4,-22.024489)">
    <path
       fill="none"
       stroke="#000"
       stroke-linecap="round"
       stroke-linejoin="round"
       stroke-miterlimit="10"
       stroke-width="2"
       d="m 6,46 c 0,0.415 0.126,0.7998 0.3428,1.1191 C 5.5635,47.3926 5,48.127 5,49 5,50.1045 5.8955,51 7,51 7.1006,51 7.1963,50.9844 7.2939,50.9707 7.1113,51.2715 7,51.6221 7,52 c 0,1.1045 0.8955,2 2,2 0.415,0 0.7998,-0.127 1.1201,-0.3428 C 10.3926,54.4375 11.127,55 12,55 12.873,55 13.6074,54.4375 13.8799,53.6572 14.2002,53.873 14.585,54 15,54 15.415,54 15.7998,53.873 16.1201,53.6572 16.3926,54.4375 17.127,55 18,55 18.873,55 19.6074,54.4375 19.8799,53.6572 20.2002,53.873 20.585,54 21,54 21.415,54 21.7998,53.873 22.1201,53.6572 22.3926,54.4375 23.127,55 24,55 24.873,55 25.6074,54.4375 25.8799,53.6572 26.2002,53.873 26.585,54 27,54 27.415,54 27.7998,53.873 28.1201,53.6572 28.3926,54.4375 29.127,55 30,55 30.873,55 31.6074,54.4375 31.8799,53.6572 32.2002,53.873 32.585,54 33,54 33.415,54 33.7998,53.873 34.1201,53.6572 34.3926,54.4375 35.127,55 36,55 36.873,55 37.6074,54.4375 37.8799,53.6572 38.2002,53.873 38.585,54 39,54 39.415,54 39.7998,53.873 40.1201,53.6572 40.3926,54.4375 41.127,55 42,55 42.873,55 43.6074,54.4375 43.8799,53.6572 44.2002,53.873 44.585,54 45,54 45.415,54 45.7998,53.873 46.1201,53.6572 46.3926,54.4375 47.127,55 48,55 48.873,55 49.6074,54.4375 49.8799,53.6572 50.2002,53.873 50.585,54 51,54 51.415,54 51.7998,53.873 52.1201,53.6572 52.3926,54.4375 53.127,55 54,55 54.873,55 55.6074,54.4375 55.8799,53.6572 56.2002,53.873 56.585,54 57,54 57.415,54 57.7998,53.873 58.1201,53.6572 58.3926,54.4375 59.127,55 60,55 60.873,55 61.6074,54.4375 61.8799,53.6572 62.2002,53.873 62.585,54 63,54 c 1.1045,0 2,-0.8955 2,-2 0,-0.3779 -0.1113,-0.7285 -0.2939,-1.0293 C 64.8037,50.9844 64.8994,51 65,51 c 1.1045,0 2,-0.8955 2,-2 0,-0.873 -0.5635,-1.6074 -1.3428,-1.8809 C 65.874,46.7998 66,46.415 66,46"
       id="path2" />
    <path
       fill="none"
       stroke="#000"
       stroke-linecap="round"
       stroke-linejoin="round"
       stroke-miterlimit="10"
       stroke-width="2"
       d="m 7,42 c 0,0 16,-4 29,-4 13,0 29,4 29,4 V 36 C 48.9834,18.665 23.0176,18.668 7,36 Z"
       id="path4" />
  </g>
</g></svg>
